public/img/old-svg/phone.svg

<svg width="16" height="16" viewBox="0 0 16 16" fill="none" xmlns="http://www.w3.org/2000/svg">
<path d="M11.4991 16C10.9827 16 10.4706 15.9087 9.9698 15.7268C7.7637 14.9254 5.71597 13.6201 4.04791 11.9521C2.37986 10.284 1.0746 8.23629 0.273225 6.03019C0.0157045 5.32122 -0.0602924 4.58937 0.0474219 3.8549C0.148324 3.16693 0.414813 2.49905 0.818109 1.92345C1.22319 1.34532 1.76323 0.864465 2.37983 0.532884C3.03736 0.179305 3.75505 0 4.51302 0C4.74876 0 4.9525 0.164712 5.00191 0.395203L5.78669 4.05752C5.82222 4.22336 5.77125 4.39591 5.65135 4.51585L4.31037 5.85679C5.57538 8.37188 7.62805 10.4245 10.1431 11.6896L11.4841 10.3486C11.604 10.2287 11.7766 10.1778 11.9424 10.2132L15.6047 10.998C15.8352 11.0474 15.9999 11.2512 15.9999 11.4869C15.9999 12.2449 15.8206 12.9626 15.467 13.6201C15.1354 14.2367 14.6546 14.7768 14.0764 15.1818C13.5009 15.5851 12.833 15.8516 12.145 15.9525C11.9294 15.9842 11.7139 16 11.4991 16ZM4.11354 1.02183C3.11373 1.1322 2.22633 1.65624 1.63704 2.4973C0.974384 3.44305 0.819859 4.60628 1.21309 5.6888C2.75378 9.93006 6.06993 13.2462 10.3112 14.7869C11.3937 15.1801 12.5569 15.0256 13.5027 14.3629C14.3437 13.7737 14.8678 12.8863 14.9782 11.8864L11.9989 11.248L10.5984 12.6485C10.4494 12.7975 10.223 12.8371 10.0323 12.7475C7.05773 11.35 4.64995 8.94226 3.25251 5.96769C3.16292 5.77698 3.20248 5.55055 3.35151 5.40156L4.75195 4.00112L4.11354 1.02183Z" fill="black" fill-opacity="0.4"/>
</svg>

<svg width="16" height="16" viewBox="0 0 16 16" fill="none" xmlns="http://www.w3.org/2000/svg"><path d="M11.5 16a4.459 4.459 0 01-1.53-.273 16.308 16.308 0 01-5.922-3.775A16.308 16.308 0 01.273 6.03a4.426 4.426 0 01-.226-2.175A4.53 4.53 0 012.38.533 4.455 4.455 0 014.513 0a.5.5 0 01.489.395l.785 3.663a.5.5 0 01-.136.458l-1.34 1.34a13.162 13.162 0 005.832 5.834l1.341-1.341a.5.5 0 01.458-.136l3.663.785a.5.5 0 01.395.489 4.46 4.46 0 01-.533 2.133 4.547 4.547 0 01-3.322 2.333 4.437 4.437 0 01-.646.047zM4.113 1.022c-1 .11-1.888.634-2.477 1.475a3.445 3.445 0 00-.424 3.192 15.165 15.165 0 009.098 9.098 3.445 3.445 0 003.192-.424 3.463 3.463 0 001.475-2.477l-2.98-.638-1.4 1.4a.5.5 0 01-.566.1 14.158 14.158 0 01-6.78-6.78.5.5 0 01.1-.566l1.4-1.4-.638-2.98z" fill="#000" fill-opacity=".4"/></svg>
